X:4105
T:Peggy's Strathspey
P:Mrs. Peggy Dykes
C:Muriel A. Johnstone
R:Strathspey (8x32)
B:RSCDS 41-5
Z:Anselm Lingnau <anselm@strathspey.org>
M:4/4
L:1/8
K:C
A|"C"G<c c<e "F"f>e "G7"de/f/|"C"e>d c<e "F"A<G "G7"G>F|\
  "C"E>G c<e "Dm/F"d>e f>g|"Dm"a<d d>e "G7"f2-fg|
  "C"G<c c<e "F"f>e "G7"de/f/|"C"e>d c<e "F"A<G "G7"G>F|\
  "C"E>G c>d "Am"ed/e/ "F"f/e/d/c/|"Dm"A<c "G7"e>d "C"c2-c3/2||
B/|"C"c<C C>c "G7"B>G d>B|"C"c<C E<G "C7/E"c>d e<g|\
  "Dm/F"a<d d>e "Dm"f>e d>c|"Am"e<A "F"A>G "G7"G2-G>B|
  "C"c<C C>c "G7"B>A G>d|"Am"e<c "F"c>d "C7"e>f g>G|\
  "F"A>B c>d "C"ed/e/ "F"f/e/d/c/|"Dm"A<c "G7"e>d "C"c2-c|]
